svg/country-4x3/tt.svg

<?xml version="1.0" encoding="UTF-8" standalone="no"?>
<!-- Created with Sodipodi ("http://www.sodipodi.com/") -->

<svg
   xmlns:dc="http://purl.org/dc/elements/1.1/"
   xmlns:cc="http://creativecommons.org/ns#"
   xmlns:rdf="http://www.w3.org/1999/02/22-rdf-syntax-ns#"
   xmlns:svg="http://www.w3.org/2000/svg"
   xmlns="http://www.w3.org/2000/svg"
   xmlns:sodipodi="http://sodipodi.sourceforge.net/DTD/sodipodi-0.dtd"
   xmlns:inkscape="http://www.inkscape.org/namespaces/inkscape"
   id="svg614"
   sodipodi:version="0.32"
   width="640"
   height="480"
   sodipodi:docname="tt.svg"
   version="1.1"
   inkscape:version="0.48.1 r9760">
  <sodipodi:namedview
     id="base"
     showgrid="false"
     inkscape:zoom="1.0958333"
     inkscape:cx="320"
     inkscape:cy="240"
     inkscape:window-width="1280"
     inkscape:window-height="746"
     inkscape:window-x="0"
     inkscape:window-y="24"
     inkscape:window-maximized="1"
     inkscape:current-layer="svg614" />
  <metadata
     id="metadata4118">
    <rdf:RDF>
      <cc:Work
         rdf:about="">
        <dc:format>image/svg+xml</dc:format>
        <dc:type
           rdf:resource="http://purl.org/dc/dcmitype/StillImage" />
      </cc:Work>
    </rdf:RDF>
  </metadata>
  <defs
     id="defs616" />
  <g
     transform="matrix(1.25,0,0,0.93749997,0,1.536e-5)"
     id="flag"
     inkscape:label="#g5030">
    <rect
       id="rect5779"
       height="512"
       x="0"
       style="fill:#ffffff;fill-opacity:1;stroke:none"
       width="512"
       y="0" />
    <path
       inkscape:connector-curvature="0"
       style="font-size:12px;fill:#e00000;fill-rule:evenodd;stroke-width:1pt"
       d="M 370.92913,512 0.0367929,1.0706251 1.02169e-6,511.72991 370.92913,512 z"
       id="path701" />
    <path
       inkscape:connector-curvature="0"
       style="font-size:12px;fill:#e00000;fill-rule:evenodd;stroke-width:1pt"
       d="M 141.07088,-1.463094e-5 511.96322,510.92936 512.00001,0.27007445 141.07088,-1.463094e-5 z"
       id="path702" />
    <path
       inkscape:connector-curvature="0"
       style="fill:#000000;fill-opacity:1;fill-rule:evenodd;stroke:none"
       d="M 22.192434,0.24453202 117.07462,0.24450055 491.60929,511.51073 393.73093,511.50968 22.192434,0.24453202 z"
       id="path703"
       sodipodi:nodetypes="ccccc" />
  </g>
</svg>

<?xml version="1.0" encoding="UTF-8" standalone="no"?>
<!-- Created with Sodipodi ("http://www.sodipodi.com/") -->
<svg id="svg614" xmlns:rdf="http://www.w3.org/1999/02/22-rdf-syntax-ns#" xmlns="http://www.w3.org/2000/svg" height="480" width="640" version="1.1" xmlns:cc="http://creativecommons.org/ns#" xmlns:dc="http://purl.org/dc/elements/1.1/">
 <metadata id="metadata4118">
  <rdf:RDF>
   <cc:Work rdf:about="">
    <dc:format>image/svg+xml</dc:format>
    <dc:type rdf:resource="http://purl.org/dc/dcmitype/StillImage"/>
   </cc:Work>
  </rdf:RDF>
 </metadata>
 <g id="flag" transform="matrix(1.25 0 0 .93750 0 .00001536)">
  <rect id="rect5779" height="512" width="512" y="0" x="0" fill="#fff"/>
  <path id="path701" d="m370.93 512-370.89-510.93-0.039999 510.66 370.93 0.27z" fill-rule="evenodd" stroke-width="1pt" fill="#e00000"/>
  <path id="path702" d="m141.07-0.000014631 370.89 510.93 0.04-510.66-370.93-0.27001z" fill-rule="evenodd" stroke-width="1pt" fill="#e00000"/>
  <path id="path703" d="m22.192 0.24453 94.878-0.00003 374.54 511.27h-97.88l-371.54-511.27z" fill-rule="evenodd"/>
 </g>
</svg>
